packages/Webkul/Ui/src/Resources/assets/images/controls.svg

<?xml version="1.0" encoding="utf-8"?>
<!-- Generator: Adobe Illustrator 21.0.2, SVG Export Plug-In . SVG Version: 6.00 Build 0)  -->
<svg version="1.1" id="Layer_1" xmlns="http://www.w3.org/2000/svg" xmlns:xlink="http://www.w3.org/1999/xlink" x="0px" y="0px"
	 width="41px" height="41px" viewBox="0 0 41 41" style="enable-background:new 0 0 41 41;" xml:space="preserve">
<style type="text/css">
	.st0{fill:#FFFFFF;}
	.st1{fill:#333333;}
	.st2{fill:#B1B1AE;}
</style>
<path class="st0" d="M31,21.5L31,21.5c5.2,0,9.5,4.3,9.5,9.5l0,0c0,5.2-4.3,9.5-9.5,9.5l0,0c-5.2,0-9.5-4.3-9.5-9.5l0,0
	C21.5,25.8,25.8,21.5,31,21.5z"/>
<circle class="st1" cx="31" cy="31" r="5"/>
<g id="checkbox">
	<path class="st0" d="M3.5,0.5h13c1.7,0,3,1.3,3,3v13c0,1.7-1.3,3-3,3h-13c-1.7,0-3-1.3-3-3v-13C0.5,1.8,1.8,0.5,3.5,0.5z"/>
	<path class="st2" d="M16.5,20h-13C1.6,20,0,18.4,0,16.5v-13C0,1.6,1.6,0,3.5,0h13C18.4,0,20,1.6,20,3.5v13C20,18.4,18.4,20,16.5,20
		z M3.5,1C2.1,1,1,2.1,1,3.5v13C1,17.9,2.1,19,3.5,19h13c1.4,0,2.5-1.1,2.5-2.5v-13C19,2.1,17.9,1,16.5,1H3.5z"/>
</g>
<path id="checkbox-checked" class="st1" d="M17,41H3c-1.7,0-3-1.3-3-3V24c0-1.7,1.3-3,3-3h14c1.7,0,3,1.3,3,3v14
	C20,39.7,18.7,41,17,41z M13.3,26l-5.9,5.7l-1.7-1.6L4,31.7L7.4,35l7.6-7.4L13.3,26z"/>
<g id="checkbox_1_">
	<path class="st0" d="M31,0.5L31,0.5c5.2,0,9.5,4.3,9.5,9.5l0,0c0,5.2-4.3,9.5-9.5,9.5l0,0c-5.2,0-9.5-4.3-9.5-9.5l0,0
		C21.5,4.8,25.8,0.5,31,0.5z"/>
	<path class="st2" d="M31,20c-5.5,0-10-4.5-10-10c0-5.5,4.5-10,10-10c5.5,0,10,4.5,10,10C41,15.5,36.5,20,31,20z M31,1c-5,0-9,4-9,9
		c0,5,4,9,9,9c5,0,9-4,9-9C40,5,36,1,31,1z"/>
</g>
<path id="radio-checked" class="st1" d="M31,41c-5.5,0-10-4.5-10-10s4.5-10,10-10s10,4.5,10,10S36.5,41,31,41z M31,22c-5,0-9,4-9,9
	s4,9,9,9s9-4,9-9S36,22,31,22z"/>
</svg>

<svg width="41" height="41" viewBox="0 0 41 41" fill="none" xmlns="http://www.w3.org/2000/svg">
<path d="M31 21.5C36.2 21.5 40.5 25.8 40.5 31C40.5 36.2 36.2 40.5 31 40.5C25.8 40.5 21.5 36.2 21.5 31C21.5 25.8 25.8 21.5 31 21.5Z" fill="white"/>
<path d="M31 36C33.7614 36 36 33.7614 36 31C36 28.2386 33.7614 26 31 26C28.2386 26 26 28.2386 26 31C26 33.7614 28.2386 36 31 36Z" fill="#333333"/>
<path d="M3.5 0.5H16.5C18.2 0.5 19.5 1.8 19.5 3.5V16.5C19.5 18.2 18.2 19.5 16.5 19.5H3.5C1.8 19.5 0.5 18.2 0.5 16.5V3.5C0.5 1.8 1.8 0.5 3.5 0.5Z" fill="white"/>
<path d="M16.5 20H3.5C1.6 20 0 18.4 0 16.5V3.5C0 1.6 1.6 0 3.5 0H16.5C18.4 0 20 1.6 20 3.5V16.5C20 18.4 18.4 20 16.5 20ZM3.5 1C2.1 1 1 2.1 1 3.5V16.5C1 17.9 2.1 19 3.5 19H16.5C17.9 19 19 17.9 19 16.5V3.5C19 2.1 17.9 1 16.5 1H3.5Z" fill="#B1B1AE"/>
<path d="M17 41H3C1.3 41 0 39.7 0 38V24C0 22.3 1.3 21 3 21H17C18.7 21 20 22.3 20 24V38C20 39.7 18.7 41 17 41ZM13.3 26L7.4 31.7L5.7 30.1L4 31.7L7.4 35L15 27.6L13.3 26Z" fill="#333333"/>
<path d="M31 0.5C36.2 0.5 40.5 4.8 40.5 10C40.5 15.2 36.2 19.5 31 19.5C25.8 19.5 21.5 15.2 21.5 10C21.5 4.8 25.8 0.5 31 0.5Z" fill="white"/>
<path d="M31 20C25.5 20 21 15.5 21 10C21 4.5 25.5 0 31 0C36.5 0 41 4.5 41 10C41 15.5 36.5 20 31 20ZM31 1C26 1 22 5 22 10C22 15 26 19 31 19C36 19 40 15 40 10C40 5 36 1 31 1Z" fill="#B1B1AE"/>
<path d="M31 41C25.5 41 21 36.5 21 31C21 25.5 25.5 21 31 21C36.5 21 41 25.5 41 31C41 36.5 36.5 41 31 41ZM31 22C26 22 22 26 22 31C22 36 26 40 31 40C36 40 40 36 40 31C40 26 36 22 31 22Z" fill="#333333"/>
</svg>
